X:1
T:In the Garden
T:In the Garden
T:Clarinet
T:C. Austin Miles
T:C. Austin Miles
T:Copyright
C:Composer
Z:Lyricist
Z:Copyright
L:1/8
M:6/8
K:Bb
V:1 treble nm="Piano" snm="Pno."
V:1
 F | F D E F B c | d3- d c B | B2 B c B G | B3 F2 A/ B/ | c2 c A2 G/ A/ | B2 c d2 d | c2 d c2 B | %8
w: I|come to the gar- den a-|lone, * While the|dew is still on the|ro- ses; And the|voice I hear, fall- ing|on my ear, The|Son of God dis-|
 A2 B !fermata!c"^Chorus" !fermata!d3/2 c/ | B2 B B A G | A2 A A2 F/ F/ | e2 e e d ^c | %12
w: clos- * es. And He|walks with me, and He|talks with me, And he|tells me I am His|
 d3- d2 B/ c/ | d2 d c c A | B2 B !fermata!B2 G | F/ B3/2 B A/ c3/2- c | B3- B2 |] %17
w: own; * And the|joy we share as we|tar- ry there None|oth- er has ev- er *|known. *|

